packages/icons/svg/Payment_Cards_Monochrome_Gift_64px.svg

<svg xmlns="http://www.w3.org/2000/svg" viewBox="0 0 64 64"><path d="M41 26h-1.76A4.49 4.49 0 0032 20.71 4.46 4.46 0 0028.5 19a4.5 4.5 0 00-3.74 7H23a1 1 0 00-1 1v16a1 1 0 001 1h18a1 1 0 001-1V27a1 1 0 00-1-1zm-1 8h-7v-6h7zm-4.5-13a2.5 2.5 0 010 5H33v-2.5a2.5 2.5 0 012.5-2.5zM26 23.5a2.5 2.5 0 015 0V26h-2.5a2.5 2.5 0 01-2.5-2.5zm5 4.5v6h-7v-6zm-7 8h7v6h-7zm9 6v-6h7v6z"/><path d="M56 16v32H8V16h48m1-3H7a2 2 0 00-2 2v34a2 2 0 002 2h50a2 2 0 002-2V15a2 2 0 00-2-2z"/></svg>

<svg xmlns="http://www.w3.org/2000/svg" viewBox="0 0 64 64"><defs></defs><g id="Icon"><path  d="M41,26H39.24A4.49,4.49,0,0,0,32,20.71,4.46,4.46,0,0,0,28.5,19a4.5,4.5,0,0,0-3.74,7H23a1,1,0,0,0-1,1V43a1,1,0,0,0,1,1H41a1,1,0,0,0,1-1V27A1,1,0,0,0,41,26Zm-1,8H33V28h7ZM35.5,21a2.5,2.5,0,0,1,0,5H33V23.5A2.5,2.5,0,0,1,35.5,21ZM26,23.5a2.5,2.5,0,0,1,5,0V26H28.5A2.5,2.5,0,0,1,26,23.5ZM31,28v6H24V28Zm-7,8h7v6H24Zm9,6V36h7v6Z"/><path  d="M56,16V48H8V16H56m1-3H7a2,2,0,0,0-2,2V49a2,2,0,0,0,2,2H57a2,2,0,0,0,2-2V15a2,2,0,0,0-2-2Z"/></g></svg>
